<?xml version="1.0" encoding="UTF-8"?>
<map version="1.10" tiledversion="1.10.2" orientation="orthogonal" renderorder="right-down" width="15" height="15" tilewidth="64" tileheight="64" infinite="0" nextlayerid="2" nextobjectid="1">
 <tileset firstgid="1" name="FloorTiles" tilewidth="64" tileheight="64" tilecount="6" columns="0">
  <grid orientation="orthogonal" width="1" height="1"/>
  <tile id="0" properties = "barrier">
   <image width="64" height="64" source="tiles/jankyRocks.png"/>
  </tile>
  <tile id="1">
   <image width="64" height="64" source="tiles/jankyRocks.png"/>
  </tile>
  <tile id="2">
   <image width="64" height="64" source="tiles/jankyWater4.png"/>
  </tile>
  <tile id="3">
   <image width="64" height="64" source="tiles/jankyWater3.png"/>
  </tile>
  <tile id="4">
   <image width="64" height="64" source="tiles/jankyWater2.png"/>
  </tile>
  <tile id="5">
   <image width="64" height="64" source="tiles/jankyWater.png"/>
  </tile>
 </tileset>
 <layer id="1" name="Tile Layer 1" width="15" height="15">
  <data encoding="csv">
1,1,1,1,1,1,1,1,1,1,1,1,1,1,1,
1,6,3,6,6,6,3,6,6,6,5,3,4,5,1,
1,4,6,5,6,6,5,6,3,6,4,6,3,6,1,
1,6,5,6,4,6,3,6,3,3,6,5,6,6,1,
1,4,6,5,6,3,3,6,5,6,3,6,5,6,1,
1,6,5,3,6,5,4,6,3,6,5,6,4,6,1,
1,5,6,6,4,3,6,5,6,6,4,3,6,5,1,
1,5,3,6,5,6,4,6,5,5,3,6,4,6,1,
1,6,5,6,3,6,4,6,6,4,5,6,3,3,1,
1,3,4,3,6,5,3,6,4,6,4,6,5,6,1,
1,6,4,6,4,3,6,5,6,3,6,5,5,6,1,
1,3,6,4,5,6,4,3,6,6,5,6,5,6,1,
1,6,4,6,3,6,5,3,6,4,6,4,6,4,1,
1,6,4,6,4,6,4,5,3,6,6,5,6,3,1,
1,1,1,1,1,1,1,1,1,1,1,1,1,1,1
</data>
 </layer>
</map>
